components/icon/svg/24/av_fast-backward-empty.svg

<?xml version="1.0" encoding="UTF-8"?>
<svg width="24px" height="24px" viewBox="0 0 24 24" version="1.1" xmlns="http://www.w3.org/2000/svg" xmlns:xlink="http://www.w3.org/1999/xlink">
    <!-- Generator: Sketch 64 (93537) - https://sketch.com -->
    <title>ic-db_av_fast-backward-empty_24</title>
    <desc>Created with Sketch.</desc>
    <g id="Symbols" stroke="none" stroke-width="1" fill="none" fill-rule="evenodd">
        <g id="24dp-Icon/AV/Fast-Backward-Empty" fill="#282D37">
            <path d="M22.1435358,13.0168539 C22.1435358,8.89223783 18.9493723,5.44998008 14.8247562,5.10880091 L15.2279589,4.70569741 C15.4449917,4.51962674 15.5690388,4.24047112 15.5690388,3.96141474 C15.5690388,3.43416489 15.1039118,3 14.5456998,3 C14.3285677,3 14.0804735,3.06202356 13.8944028,3.21713207 L11.6305926,5.51200364 C11.444522,5.69807431 11.351437,5.91510714 11.351437,6.19426276 C11.351437,6.47331914 11.444522,6.72141336 11.6305926,6.90748403 L13.8014171,9.10936989 C13.9874878,9.29544056 14.235582,9.38842628 14.5456998,9.38842628 C15.0728504,9.38842628 15.5070153,8.92329922 15.5070153,8.39604938 C15.5070153,8.14795515 15.4140296,7.89986093 15.1968975,7.71379026 L14.6386855,7.0935547 C17.7398633,7.31068677 20.158782,9.91567612 20.158782,13.0478161 C20.158782,14.5674428 19.5385464,16.0869703 18.3911603,17.2654179 C18.2050896,17.4514886 18.1120046,17.6995828 18.1120046,17.947677 C18.1120046,18.505889 18.5772309,18.9400539 19.1043815,18.9400539 C19.3524758,18.9400539 19.60057,18.8470682 19.7866406,18.6609975 C21.3372296,17.1104086 22.1435358,15.0945934 22.1435358,13.0168539 Z" id="🎨-Color"></path>
        </g>
    </g>
</svg>

<svg width="24" height="24" xmlns="http://www.w3.org/2000/svg"><path d="M22.144 13.017c0-4.125-3.195-7.567-7.32-7.908l.404-.403a.99.99 0 00.341-.745c0-.527-.465-.961-1.023-.961a1.03 1.03 0 00-.652.217l-2.263 2.295a.912.912 0 00-.28.682c0 .28.094.527.28.713L13.8 9.11c.186.186.435.28.745.28.527 0 .961-.466.961-.993a.88.88 0 00-.31-.682l-.558-.62c3.1.217 5.52 2.822 5.52 5.954 0 1.52-.62 3.039-1.768 4.217a.962.962 0 00-.279.683 1 1 0 00.992.992.962.962 0 00.683-.279 7.937 7.937 0 002.357-5.644z" fill="#282D37" fill-rule="evenodd"/></svg>
